packages/foundations/assets/icons/functional/images/layout/zoom_in_14.svg

<svg width="14" height="14" viewBox="0 0 14 14" fill="none" xmlns="http://www.w3.org/2000/svg">
<g clip-path="url(#clip0_185_1524)">
<path fill-rule="evenodd" clip-rule="evenodd" d="M6.30002 1.40002C9.00897 1.40002 11.2 3.59108 11.2 6.30002C11.2 7.41547 10.8244 8.41141 10.2325 9.23092L12.3951 11.3935C12.5317 11.5301 12.6 11.7122 12.6 11.8943C12.6 12.2813 12.2813 12.6 11.9171 12.6C11.735 12.6 11.5756 12.5317 11.3935 12.3951L9.23092 10.2325C8.41141 10.8472 7.39271 11.2 6.30002 11.2C3.59108 11.2 1.40002 9.00897 1.40002 6.30002C1.40002 3.59108 3.59108 1.40002 6.30002 1.40002ZM6.29433 2.81141C4.35937 2.81141 2.81141 4.35937 2.81141 6.29433C2.81141 8.22929 4.35937 9.80002 6.29433 9.80002C8.22929 9.80002 9.80002 8.22929 9.80002 6.29433C9.80002 4.35937 8.22929 2.81141 6.29433 2.81141ZM7.00002 4.20002H5.60002V5.60002H4.20002V7.00002H5.60002V8.40002L7.00002 8.41141V7.00002H8.40002V5.60002H7.00002V4.20002Z" fill="#1A1C1F"/>
</g>
<defs>
<clipPath id="clip0_185_1524">
<rect width="14" height="14" fill="white"/>
</clipPath>
</defs>
</svg>

<svg xmlns="http://www.w3.org/2000/svg" width="14" height="14" fill="none"><g clip-path="url(#a)"><path fill="#1A1C1F" fill-rule="evenodd" d="M6.3 1.4c2.709 0 4.9 2.191 4.9 4.9a4.97 4.97 0 0 1-.967 2.93l2.162 2.163a.7.7 0 0 1 .205.501c0 .387-.319.706-.683.706-.182 0-.341-.068-.524-.205l-2.162-2.162A4.87 4.87 0 0 1 6.3 11.2a4.896 4.896 0 0 1-4.9-4.9c0-2.709 2.191-4.9 4.9-4.9m-.006 1.411a3.47 3.47 0 0 0-3.483 3.483A3.49 3.49 0 0 0 6.294 9.8 3.507 3.507 0 0 0 9.8 6.294a3.49 3.49 0 0 0-3.506-3.483M7 4.2H5.6v1.4H4.2V7h1.4v1.4l1.4.011V7h1.4V5.6H7z" clip-rule="evenodd"/></g><defs><clipPath id="a"><path fill="#fff" d="M0 0h14v14H0z"/></clipPath></defs></svg>
